app/img/svg/twitter.svg

<svg xmlns="http://www.w3.org/2000/svg" width="36" height="30"><defs><clipPath id="cp1"><path d="M0 1h35v29H0z"/></clipPath></defs><style></style><g id="Page 1" clip-path="url(#cp1)"><path id="Path 1" d="M22.57.98c3.47-.97 6.14.53 7.37 2.3 1.38-.45 2.74-.94 4.14-1.38-.01 1.68-1.08 2.96-1.77 3.45 1.41.34 2.69-.96 2.69-.96-.35 1.96-2.07 3.5-3.22 3.96-.48 13.18-6.55 21.91-20.77 21.64h-.92c-.84 0-8.58-.89-10.09-3.68 4.68.38 8.02-.83 9.67-2.3-1.98-.59-5.52-.93-6.14-5.76.72.21 1.17.44 2.46.23C3.51 16.81.77 15.41.92 11.11c.59.64 2.2 1.05 2.76.92-1.45-.47-4.06-6.56-1.84-9.67 3.75 3.62 7.7 7.04 14.74 7.37.43-4.48 2.34-7.48 5.99-8.75z"/></g></svg>

<svg xmlns="http://www.w3.org/2000/svg" viewBox="0 0 36 30" width="36" height="30">
	<defs>
		<clipPath clipPathUnits="userSpaceOnUse" id="cp1">
			<path d="M0 1L35 1L35 30L0 30Z" />
		</clipPath>
	</defs>
	<style>
		tspan { white-space:pre }
		.shp0 { fill: #000000 } 
	</style>
	<g id="Page 1" clip-path="url(#cp1)">
		<path id="Path 1" class="shp0" d="M22.57 0.98C26.04 0.01 28.71 1.51 29.94 3.28C31.32 2.83 32.68 2.34 34.08 1.9C34.07 3.58 33 4.86 32.31 5.35C33.72 5.69 35 4.39 35 4.39C34.65 6.35 32.93 7.89 31.78 8.35C31.3 21.53 25.23 30.26 11.01 29.99L10.09 29.99C9.25 29.99 1.51 29.1 0 26.31C4.68 26.69 8.02 25.48 9.67 24.01C7.69 23.42 4.15 23.08 3.53 18.25C4.25 18.46 4.7 18.69 5.99 18.48C3.51 16.81 0.77 15.41 0.92 11.11C1.51 11.75 3.12 12.16 3.68 12.03C2.23 11.56 -0.38 5.47 1.84 2.36C5.59 5.98 9.54 9.4 16.58 9.73C17.01 5.25 18.92 2.25 22.57 0.98Z" />
	</g>
</svg>
